!!!COM: Beethoven
!!!OTL: Sechs leichte variationen
!!!Variation: Theme a
**function	**harm	**kern	**kern
*	*	*clefF4	*clefG2
*	*	*k[f#]	*k[f#]
*M2/4	*M2/4	*M2/4	*M2/4
*G:	*G:	*G:	*G:
4T	4I	(4G	(8d'L 8b'
.	.	.	8d#'J) 8b'
=1	=1	=1	=1
4.T	4.iib	4.C	(8.eL 8.a
.	.	.	32bLL
.	.	.	32ccJJJ)
.	.	.	8eL
8T	8V7	8D)	8cJ 8f#
=2	=2	=2	=2
4T	4I	(4GG	(8BL 8g
.	.	.	16dJk)
.	.	.	16r
4T	4V	4D	(8f#L 8a
.	.	.	16dJk)
.	.	.	16r
=3	=3	=3	=3
4T	4I	4G)	(8gL 8b
.	.	.	16dJk)
.	.	.	16r
8T	8V7b	8F#'L 8d'	8a'L) 8cc'
8T	8I	8G'J 8d'	8g'J 8b'
=4	=4	=4	=4
4D	4V	4D 4d	4d 4f# 4a
*-	*-	*-	*-
!!!COM: Beethoven
!!!OTL: Sechs leichte variationen
!!!Variation: Theme b
**function	**harm	**kern	**kern
*	*	*clefF4	*clefG2
*	*	*k[f#]	*k[f#]
*M2/4	*M2/4	*M2/4	*M2/4
*G:	*G:	*G:	*G:
4T	4I	(4G	(8d'L 8b'
.	.	.	8d#'J) 8b'
=5	=5	=5	=5
4.T	4.iib	4.C	8.eL 8.a
.	.	.	32bLL
.	.	.	32ccJJJ
.	.	.	8eL
8T	8V7	8D)	8cJ 8f#
=6	=6	=6	=6
4T	4I	(4GG	(8BL 8g
.	.	.	16dJk)
.	.	.	16r
4T	4V	4D	(8f#L 8a
.	.	.	16dJk)
.	.	.	16r
=7	=7	=7	=7
4T	4I	4G)	(8gL 8b
.	.	.	16dJk)
.	.	.	16r
8D	8Ic/V	8A'L	8d'L 8f#'
8D	8V7/V	8AA'J 8G'	8c#'J 8e'
=8	=8	=8	=8
4D	4V	4D 4F#	4d
*-	*-	*-	*-
!!!COM: Beethoven
!!!OTL: Sechs leichte variationen
!!!Variation: Theme c
**function	**harm	**kern	**kern
*	*	*clefF4	*clefG2
*	*	*k[f#]	*k[f#]
*M2/4	*M2/4	*M2/4	*M2/4
*G:	*G:	*G:	*G:
4T	4Ib	4B 4d	8dd'L
.	.	.	8dd'J
=9	=9	=9	=9
4T	4V7c	4A 4d	(8ddL
.	.	.	16ccJk)
.	.	.	16r
.	.	.	ccq
4T	4I	4G 4d	(16.bLL)
.	.	.	32ak
.	.	.	16.b
.	.	.	32ccJJk)
=10	=10	=10	=10
4T	4V	4D 4d	(8bL
.	.	.	8aJ)
4T	4V7d	4c 4d	8ee'L
.	.	.	8ee'J
=11	=11	=11	=11
4T	4Ib	4B 4d	(8eeL
.	.	.	16ddJk)
.	.	.	16r
.	.	.	ddq
4D	4V7b	4F# 4d	(16.ccLL)
.	.	.	32bk
.	.	.	16.cc
.	.	.	32ddJJk)
=12	=12	=12	=12
4T	4I	4G 4d	(8ccL
.	.	.	16bJk)
.	.	.	16r
*-	*-	*-	*-
!!!COM: Beethoven
!!!OTL: Sechs leichte variationen
!!!Variation: Theme d
**function	**harm	**kern	**kern
*	*	*clefF4	*clefG2
*	*	*k[f#]	*k[f#]
*M2/4	*M2/4	*M2/4	*M2/4
*G:	*G:	*G:	*G:
4T	4I	(4G	(8d'L 8b'
.	.	.	8d#'J) 8b'
=13	=13	=13	=13
4.T	4.iib	4.C	(8.eL 8.a
.	.	.	32bLL
.	.	.	32ccJJJ)
.	.	.	8eL
8T	8V7	8D)	8cJ 8f#
=14	=14	=14	=14
4T	4I	(4GG	(8BL 8g
.	.	.	16dJk)
.	.	.	16r
4T	4V	4D	(8f#L 8a
.	.	.	16dJk)
.	.	.	16r
=15	=15	=15	=15
4T	4I	4G)	(8gL 8b
.	.	.	16dJk)
.	.	.	16r
8P	8IV	8C'L	8e'L 8cc'
8D	8V	8D'J	8f#'J 8a'
=16	=16	=16	=16
4T	4I	4GG	4B 4g
*-	*- 	*-	*-
!!!COM: Beethoven
!!!OTL: Sechs leichte variationen
!!!Variation: Variation 1 a
**function	**harm	**kern	**kern
*	*	*clefG2	*clefG2
*	*	*k[f#]	*k[f#]
*M2/4	*M2/4	*M2/4	*M2/4
*G:	*G:	*G:	*G:
4T	4I	(4g	16r
.	.	.	(16ddLL
.	.	.	16gg
.	.	.	16bbJJ
=17	=17	=17	=17
4T	4iib	4c)	16eeLL
.	.	.	16bb
.	.	.	16aa
.	.	.	16cccJJ)
*	*	*clefF4	*
4T	4V7	(4D	16r
.	.	.	(16cLL
.	.	.	16f#
.	.	.	16aJJ
=18	=18	=18	=18
4T	4I	4GG	16BLL
.	.	.	16a
.	.	.	16g
.	.	.	16bJJ)
4T	4V	4D	16r
.	.	.	(16dLL
.	.	.	16g 16b
.	.	.	16f#JJ) 16a
=19	=19	=19	=19
4T	4I	4G	16r
.	.	.	(16dLL
.	.	.	16a 16cc
.	.	.	16gJJ) 16b
8P	8IVb	8EL	16r
.	.	.	16g 16cc
8P	8viiom7/V	8C#J)	16r
.	.	.	16g 16b
=20	=20	=20	=20
4D	4V	4D	16r
.	.	.	(16f#LL 16a
.	.	.	16c#
.	.	.	16dJJ)
*-	*-	*-	*-
!!!COM: Beethoven
!!!OTL: Sechs leichte variationen
!!!Variation: Variation 1 b
**function	**harm	**kern	**kern
*	*	*clefG2	*clefG2
*	*	*k[f#]	*k[f#]
*M2/4	*M2/4	*M2/4	*M2/4
*G:	*G:	*G:	*G:
4T	4I	(4g	16r
.	.	.	(16ddLL
.	.	.	16gg
.	.	.	16bbJJ
=21	=21	=21	=21
4T	4iib	4c)	16eeLL
.	.	.	16bb
.	.	.	16aa
.	.	.	16cccJJ)
*	*	*clefF4	*
4T	4V7	(4D	16r
.	.	.	(16cLL
.	.	.	16f#
.	.	.	16aJJ
=22	=22	=22	=22
4T	4I	4GG	16BLL
.	.	.	16a
.	.	.	16g
.	.	.	16bJJ)
4T	4V	4D	16r
.	.	.	(16dLL
.	.	.	16g 16b
.	.	.	16f#JJ) 16a
=23	=23	=23	=23
4T	4I	4G)	16r
.	.	.	(16dLL
.	.	.	16a 16cc
.	.	.	16gJJ) 16b
8P	8Ic/V	8AL	16r
.	.	.	16d 16f#
8P	8V7/V	8AAJ 8G	16r
.	.	.	16c 16e
=24	=24	=24	=24
4D	4V	4D 4F#	4d
*-	*-	*-	*-
!!!COM: Beethoven
!!!OTL: Sechs leichte variationen
!!!Variation: Variation 1 c
**function	**harm	**kern	**kern
*	*	*clefF4	*clefG2
*	*	*k[f#]	*k[f#]
*M2/4	*M2/4	*M2/4	*M2/4
*G:	*G:	*G:	*G:
4T	4Ib	4B 4d	16r
.	.	.	(16cc#LL
.	.	.	16ee
.	.	.	16ddJJ)
=25	=25	=25	=25
4T	4V7c	4A 4d	16r
.	.	.	(16bLL
.	.	.	16dd
.	.	.	16ccJJ)
4T	4I	8GL 8d	16r
.	.	.	(16a#LL
.	.	8GJ 8d	16cc
.	.	.	16bJJ)
=26	=26	=26	=26
4T	4V	4D 4d	(16bLL
.	.	.	16a
.	.	.	16g#
.	.	.	16aJJ)
4T	4V7d	4c 4d	16r
.	.	.	(16dd#LL
.	.	.	16ff#
.	.	.	16eeJJ)
=27	=27	=27	=27
4T	4Ib	4B 4d	16r
.	.	.	(16cc#LL
.	.	.	16ee
.	.	.	16ddJJ)
4D	4V7b	8F#L 8d	16r
.	.	.	(16bLL
.	.	8F#J 8d	16dd
.	.	.	16ccJJ)
=28	=28	=28	=28
4T	4I	4G 4d	(16ccLL
.	.	.	16a#
.	.	.	16b
.	.	.	16ggJJ)
*-	*-	*-	*-
!!!COM: Beethoven
!!!OTL: Sechs leichte variationen
!!!Variation: Variation 1 d
**function	**harm	**kern	**kern
*	*	*clefG2	*clefG2
*	*	*k[f#]	*k[f#]
*M2/4	*M2/4	*M2/4	*M2/4
*G:	*G:	*G:	*G:
4T	4I	(4g	16r
.	.	.	(16ddLL
.	.	.	16gg
.	.	.	16bbJJ
=29	=29	=29	=29
4.T	4.iib	4c)	16eeLL
.	.	.	16bb
.	.	.	16aa
.	.	.	16cccJJ)
*	*	*clefF4	*
.	.	(4D	16r
.	.	.	(16cLL
8T	8V7	.	16f#
.	.	.	16aJJ
=30	=30	=30	=30
4T	4I	4GG	16BLL
.	.	.	16a
.	.	.	16g
.	.	.	16bJJ)
4T	4V	4D	16r
.	.	.	(16dLL
.	.	.	16g 16b
.	.	.	16f#JJ) 16a
=31	=31	=31	=31
4T	4I	4G)	16r
.	.	.	(16dLL
.	.	.	16a 16cc
.	.	.	16gJJ) 16b
8P	8iib	8CL	16r
.	.	.	16e 16a 16cc
8D	8V7	8DJ	16r
.	.	.	16c 16f# 16a
=32	=32	=32	=32
4T	4I	4GG	4B 4g
*-	*-	*-	*-
!!!COM: Beethoven
!!!OTL: Sechs leichte variationen
!!!Variation: Variation 2 a
**function	**harm	**kern	**kern
*	*	*clefG2	*clefG2
*	*	*k[f#]	*k[f#]
*M2/4	*M2/4	*M2/4	*M2/4
*G:	*G:	*G:	*G:
4T	4I	(24GLL	(24bLL
.	.	24B	24dd
.	.	24dJJ	24ggJJ
.	.	8g')	8bb')
=33	=33	=33	=33
4T	4iib	(24cLL	(24eeLL
.	.	24e	24aa
.	.	24aJJ	24cccJJ
.	.	8cc')	8eee')
*	*	*clefF4	*
4T	4V7	4D	24ALL
.	.	.	24c
.	.	.	24eJJ
.	.	.	24ALL
.	.	.	24c
.	.	.	24f#JJ
=34	=34	=34	=34
4T	4I	8GG	24gLL
.	.	.	24d
.	.	.	24BJJ
.	.	24DLL	8G
.	.	24BB	.
.	.	24GGJJ	.
4T	4V	24FF#LL	8r
.	.	24AA	.
.	.	24DJJ	.
.	.	8DD	24aLL
.	.	.	24f#
.	.	.	24dJJ
=35	=35	=35	=35
4T	4I	24GGLL	8r
.	.	24BB	.
.	.	24DJJ	.
.	.	8G	24bLL
.	.	.	24g
.	.	.	24dJJ
8T	8IVb	8EL	24r
.	.	.	(24gLL
.	.	.	24ccJJ)
8P	8viiom7/V	8C#J	24r
.	.	.	(24gLL
.	.	.	24bJJ)
=36	=36	=36	=36
4D	4V	8D	24f#LL
.	.	.	24a
.	.	.	24gJJ
.	.	8r	24f#LL
.	.	.	24e
.	.	.	24dJJ
*-	*-	*-	*-
!!!COM: Beethoven
!!!OTL: Sechs leichte variationen
!!!Variation: Variation 2 b
**function	**harm	**kern	**kern
*	*	*clefG2	*clefG2
*	*	*k[f#]	*k[f#]
*M2/4	*M2/4	*M2/4	*M2/4
*G:	*G:	*G:	*G:
4T	4I	(24GLL	(24bLL
.	.	24B	24dd
.	.	24dJJ	24ggJJ
.	.	8g')	8bb')
=37	=37	=37	=37
4T	4iib	(24cLL	(24eeLL
.	.	24e	24aa
.	.	24aJJ	24cccJJ
.	.	8cc')	8eee')
*	*	*clefF4	*
4T	4V7	4D	24ALL
.	.	.	24c
.	.	.	24eJJ
.	.	.	24ALL
.	.	.	24c
.	.	.	24f#JJ
=38	=38	=38	=38
4T	4I	8GG	24gLL
.	.	.	24d
.	.	.	24BJJ
.	.	24DLL	8G
.	.	24BB	.
.	.	24GGJJ	.
4T	4V	24FF#LL	8r
.	.	24AA	.
.	.	24DJJ	.
.	.	8DD	24aLL
.	.	.	24f#
.	.	.	24dJJ
=39	=39	=39	=39
4T	4I	24GGLL	8r
.	.	24BB	.
.	.	24DJJ	.
.	.	8G	24bLL
.	.	.	24g
.	.	.	24dJJ
8D	8Ic/V	24AALL	24aLL
.	.	24D	24f#
.	.	24F#JJ	24dJJ
8D	8V7/V	24AALL	24aLL
.	.	24E	24e
.	.	24GJJ	24c#JJ
=40	=40	=40	=40
4D	4V	8D 8F#	24dLL
.	.	.	24f#
.	.	.	24aJJ
.	.	8r	8dd
*-	*-	*-	*-
!!!COM: Beethoven
!!!OTL: Sechs leichte variationen
!!!Variation: Variation 2 c
**function	**harm	**kern	**kern
*	*	*clefG2	*clefG2
*	*	*k[f#]	*k[f#]
*M2/4	*M2/4	*M2/4	*M2/4
*G:	*G:	*G:	*G:
4T	4Ib	24BLL	8r
.	.	24d	.
.	.	24gJJ	.
.	.	8b	24ddLL
.	.	.	24gg
.	.	.	24dddJJ
=41	=41	=41	=41
4T	4viiob	24ALL	8r
.	.	24c	.
.	.	24f#JJ	.
.	.	8a	24ccLL
.	.	.	24ff#
.	.	.	24cccJJ
*	*	*clefF4	*
8T	8I	8GL	24dLL
.	.	.	24g
.	.	.	24bJJ
8T	8viiom7/V	8C#J	24eLL
.	.	.	24g
.	.	.	24bJJ
=42	=42	=42	=42
4T	4V	4D	24f#LL
.	.	.	24a
.	.	.	24gJJ
.	.	.	24f#LL
.	.	.	24e
.	.	.	24dJJ
*	*	*clefG2	*
4T	4V7d	24cLL	8r
.	.	24f#	.
.	.	24aJJ	.
.	.	8cc	24ff#LL
.	.	.	24aa
.	.	.	24eeeJJ
=43	=43	=43	=43
4T	4Ib	24BLL	8r
.	.	24d	.
.	.	24gJJ	.
.	.	8b	24ddLL
.	.	.	24gg
.	.	.	24dddJJ
*	*	*clefF4	*
8P	8IVb	8EL	24eLL
.	.	.	24g
.	.	.	24ccJJ
8D	8viioD7	8F#J	24e-LL
.	.	.	24a
.	.	.	24ccJJ
=44	=44	=44	=44
4T	4I	[8GL	24dLL
.	.	.	24b
.	.	.	24gJ
.	.	24GL]	24dL
.	.	24D	24BJJ
.	.	24BBJJ	24r
*-	*-	*-	*-
!!!COM: Beethoven
!!!OTL: Sechs leichte variationen
!!!Variation: Variation 2 d
**function	**harm	**kern	**kern
*	*	*clefF4	*clefG2
*	*	*k[f#]	*k[f#]
*M2/4	*M2/4	*M2/4	*M2/4
*G:	*G:	*G:	*G:
4T	4I	24GGLL	8r
.	.	24BB	.
.	.	24DJJ	.
.	.	8G	24BLL
.	.	.	24d
.	.	.	24bJJ
=45	=45	=45	=45
4T	4iib	24CLL	8r
.	.	24E	.
.	.	24AJJ	.
.	.	8c	24eLL
.	.	.	24a
.	.	.	24ccJJ
4T	4V7	24DLL	8r
.	.	24F#	.
.	.	24AJJ	.
.	.	8c	24f#LL
.	.	.	24a
.	.	.	24ff#JJ
=46	=46	=46	=46
*	*	*clefG2	*
4T	4I	24GLL	8r
.	.	24B	.
.	.	24dJJ	.
.	.	8g	24bLL
.	.	.	24dd
.	.	.	24bbJJ
*	*	*clefF4	*
4T	4V7	24DDLL	24ddLL
.	.	24FF#	24cc
.	.	24AAJJ	24aJJ
.	.	24DLL	24ddLL
.	.	24E	24cc
.	.	24F#JJ	24aJJ
=47	=47	=47	=47
8T	8I	24GLL	24ddLL
.	.	24A	24b
.	.	24BJJ	24gJJ
8T	8Ib	24BBLL	24ddLL
.	.	24D	24b
.	.	24GJJ	24gJJ
8P	8iib	24CLL	24ccLL
.	.	24E	24a
.	.	24AJJ	24eJJ
8D	8V7	24DLL	24aLL
.	.	24E	24f#
.	.	24F#JJ	24cJJ
=48	=48	=48	=48
4T	4I	8GG	24gLL
.	.	.	24d
.	.	.	24BJJ
.	.	8r	8G
*-	*- 	*-	*-
!!!COM: Beethoven
!!!OTL: Sechs leichte variationen
!!!Variation: Variation 3 a
!!N.B.: There may be different versions of this score. 
**function	**harm	**kern	**kern
*	*	*clefF4	*clefG2
*	*	*k[f#]	*k[f#]
*M2/4	*M2/4	*M2/4	*M2/4
*G:	*G:	*G:	*G:
4T	4I	16gLL	8b'L 8bb'
.	.	16f#	.
.	.	16e	8b'J 8bb'
.	.	16dJJ	.
=49	=49	=49	=49
4.T	4.iib	16cLL	4a 4aa
.	.	16B	.
.	.	16c	.
.	.	16AJJ	.
.	.	16dLL	8e'L 8ee'
.	.	16c	.
8T	8V7	16B	8f#'J 8ff#'
.	.	16AJJ	.
=50	=50	=50	=50
4T	4Ib	16BLL	4g 4gg
.	.	16A#	.
.	.	16B	.
.	.	16GJJ	.
4T	4V	16F#LL	8a'L 8aa'
.	.	16E#	.
.	.	16F#	8a#'J 8aa#'
.	.	16DJJ	.
=51	=51	=51	=51
4T	4I	16GLL	4b 4bb
.	.	16F#	.
.	.	16G	.
.	.	16FJJ	.
8P	8IVb	16ELL	8cc'L 8ccc'
.	.	16G	.
8P	8Lt	16E-	8cc#'J 8ccc#'
.	.	16GJJ	.
=52	=52	=52	=52
4D	4V	16DLL	4dd 4ddd
.	.	16A	.
.	.	16d	.
.	.	16cJJ	.
*-	*-	*-	*-
!!!COM: Beethoven
!!!OTL: Sechs leichte variationen
!!!Variation: Variation 3 b
**function	**harm	**kern	**kern
*	*	*clefF4	*clefG2
*	*	*k[f#]	*k[f#]
*M2/4	*M2/4	*M2/4	*M2/4
*G:	*G:	*G:	*G:
4T	4Ib	8BB'L 8B'	(16ggLL
.	.	.	16ff#
.	.	8BB'J 8B'	16ee
.	.	.	16ddJJ)
=53	=53	=53	=53
4.T	4.ii	4AA 4A	(16ccLL)
.	.	.	16b
.	.	.	16cc
.	.	.	16eeJJ)
.	.	8EE'L 8E'	(16ddLL
.	.	.	16cc
8T	8viio	8FF#'J 8F#'	16b
.	.	.	16aJJ)
=54	=54	=54	=54
4T	4I	4GG 4G	(16bLL)
.	.	.	16a#
.	.	.	16b
.	.	.	16gJJ)
4T	4Vc	8AA'L 8A'	(16f#LL
.	.	.	16dd
.	.	8AA#'J 8A#'	16ff#
.	.	.	16ddJJ)
=55	=55	=55	=55
*	*	*	*^
8T	8Ib	4BB 4B	8ggL	16ggLL
.	.	.	.	(16dd
8T	8viioD7b/V/V	.	8gg#J	16ff)
.	.	.	.	16ddJJ
8D	8Ic/V	8AA'L 8A'	8aaL	(16ff#LL
.	.	.	.	16dd
8D	8V7/V	8AA'J 8G'	8aaJ	16ee
.	.	.	.	16cc#JJ)
=56	=56	=56	=56	=56
4D	4V	4D 4F#	4dd	16ddLL
.	.	.	.	16a
.	.	.	.	16f#
.	.	.	.	16dJJ
*	*	*	*v	*v
*-	*-	*-	*-
!!!COM: Beethoven
!!!OTL: Sechs leichte variationen
!!!Variation: Variation 3 c
**function	**harm	**kern	**kern
*	*	*clefF4	*clefG2
*	*	*k[f#]	*k[f#]
*M2/4	*M2/4	*M2/4	*M2/4
*G:	*G:	*G:	*G:
4T	4Ib	(16BLL	8d'L 8dd'
.	.	16A#	.
.	.	16B	8d'J 8dd'
.	.	16DJJ)	.
=57	=57	=57	=57
4T	4V7c	(16ALL	(8dL 8dd
.	.	16G#	.
.	.	16A	16cJk) 16cc
.	.	16DJJ)	16r
4T	4I	(16GLL	8r
.	.	16F#	.
.	.	16G	8B' 8b'
.	.	16DJJ)	.
=58	=58	=58	=58
4T	4Vb	(16F#LL	(8BL 8b
.	.	16E#	.
.	.	16F#	16AJk) 16a
.	.	16DJJ)	16r
4T	4V7d	(16cLL	8r
.	.	16B	.
.	.	16c	8e' 8ee'
.	.	16DJJ)	.
=59	=59	=59	=59
4T	4Ib	(16BLL	(8eL 8ee
.	.	16A#	.
.	.	16B	16dJk) 16dd
.	.	16DJJ)	16r
4D	4V7c	(16ALL	8r
.	.	16D	.
.	.	16E	8c' 8cc'
.	.	16F#JJ)	.
=60	=60	=60	=60
4T	4I	(16GLL	(8cL 8cc
.	.	16GG	.
.	.	16BB	8BJ) 8b
.	.	16DJJ)	.
*-	*-	*-	*-
!!!COM: Beethoven
!!!OTL: Sechs leichte variationen
!!!Variation: Variation 3 d
**function	**harm	**kern	**kern
*	*	*clefF4	*clefG2
*	*	*k[f#]	*k[f#]
*M2/4	*M2/4	*M2/4	*M2/4
*G:	*G:	*G:	*G:
4T	4I	(16GLL	8b'L 8bb'
.	.	16F#	.
.	.	16E	8b'J 8bb'
.	.	16DJJ)	.
=61	=61	=61	=61
4T	4iib	(16CLL	4a 4aa
.	.	16BB	.
.	.	16C	.
.	.	16AAJJ)	.
4T	4V7	(16DLL	8e'L 8ee'
.	.	16C	.
.	.	16BB	8f#'J 8ff#'
.	.	16AAJJ)	.
=62	=62	=62	=62
4T	4Ib	(16BBLL	4g 4gg
.	.	16AA#	.
.	.	16BB	.
.	.	16GGJJ)	.
4T	4V7b	(16FF#LL	8a'L 8aa'
.	.	16EE#	.
.	.	16FF#	8a#'J 8aa#'
.	.	16DDJJ)	.
=63	=63	=63	=63
4T	4I	(16GGLL	4b 4bb
.	.	16FF#	.
.	.	16EE	.
.	.	16DDJJ)	.
8P	8iib	16CCLL	8cc'L 8aa' 8ccc'
.	.	16C	.
8D	8V	16DD	8a'J 8ff#' 8aa'
.	.	16DJJ	.
=64	=64	=64	=64
4T	4I	16GGLL	4g 4b 4gg
.	.	16BB	.
.	.	16D	.
.	.	16GJJ	.
*-	*- 	*-	*-
!!!COM: Beethoven
!!!OTL: Sechs leichte variationen
!!!Variation: Variation 3 c2
**function	**harm	**kern	**kern
*	*	*clefF4	*clefG2
*	*	*k[f#]	*k[f#]
*M2/4	*M2/4	*M2/4	*M2/4
*G:	*G:	*G:	*G:
4T	4Ib	8B'L 8d'	16dddLL
.	.	.	16ccc#
.	.	8B'J 8d'	16ddd
.	.	.	16ddJJ
=65	=65	=65	=65
8T	8Ib	(8BL 8d	16dddLL
.	.	.	16ccc#
4T	4V7c	16AJk) 16c	16ddd
.	.	16r	16ddJJ
.	.	8r	16dddLL
.	.	.	16ccc#
8T	8I	8G' 8B'	16ddd
.	.	.	16ddJJ
=66	=66	=66	=66
8T	8I	(8GL 8B	16dddLL
.	.	.	16ccc#
4T	4Vb	16F#Jk) 16A	16ddd
.	.	16r	16ddJJ
.	.	8r	16dddLL
.	.	.	16ccc#
8T	8V7d	8c' 8e'	16ddd
.	.	.	16ddJJ
=67	=67	=67	=67
8T	8V7d	(8cL 8e	16dddLL
.	.	.	16ccc#
4T	4Ib	16BJk) 16d	16ddd
.	.	16r	16ddJJ
.	.	8r	16dddLL
.	.	.	16ccc#
8D	8V7c	8A 8c	16ddd
.	.	.	16ddJJ
=68	=68	=68	=68
8D	8V7c	(8AL 8c	16dddLL
.	.	.	16dd
8T	8I	16GJk) 16B	16ee
.	.	16r	16ff#JJ
*-	*-	*-	*-
!!!COM: Beethoven
!!!OTL: Sechs leichte variationen
!!!Variation: Variation 3 d2
**function	**harm	**kern	**kern
*	*	*clefF4	*clefG2
*	*	*k[f#]	*k[f#]
*M2/4	*M2/4	*M2/4	*M2/4
*G:	*G:	*G:	*G:
4T	4Ib	8BB'L 8B'	(16ggLL
.	.	.	16ff#
.	.	8BB'J 8B'	16ee
.	.	.	16ddJJ)
=69	=69	=69	=69
.	.	.	ddq
4.T	4.ii	4AA 4A	(16ccLL)
.	.	.	16b
.	.	.	16cc
.	.	.	16eeJJ)
.	.	8EE'L 8E'	(16ddLL
.	.	.	16cc
8T	8viio	8FF#'J 8F#'	16b
.	.	.	16aJJ)
=70	=70	=70	=70
.	.	.	ccq
4T	4I	4GG 4G	(16bLL)
.	.	.	16a#
.	.	.	16b
.	.	.	16gJJ
4T	4Vc	8AA'L 8A'	16f#LL
.	.	.	16dd
.	.	8AA#'J 8A#'	16ff#
.	.	.	16ddJJ)
=71	=71	=71	=71
*	*	*	*^
8T	8Ib	4BB 4B	8ggL	(16ggLL
.	.	.	.	16dd
8T	8viioD7b/ii	.	8gg#J	16ffn
.	.	.	.	16ddJJ)
8P	8iib	8C'L 8c'	8aaL	(16eeLL
.	.	.	.	16cc
8D	8V7	8D'J 8d'	8ff#J	16cc
.	.	.	.	16aJJ)
*	*	*	*v	*v
=72	=72	=72	=72
4T	4I	4GG 4G	8bL 8gg
.	.	.	8gJ
*-	*- 	*-	*-
!!!COM: Beethoven
!!!OTL: Sechs leichte variationen
!!!Variation: Variation 4 a
**function	**harm	**kern	**kern
*	*	*clefF4	*clefF4
*	*	*k[b-e-]	*k[b-e-]
*M2/4	*M2/4	*M2/4	*M2/4
*g:	*g:	*g:	*g:
4T	4ib	8BB-L	8B-L
.	.	8BB-J	8B-J
=73	=73	=73	=73
2T	2viiom7b	(8.AAL	(8.AL
.	.	32BB-LL	32B-LL
.	.	32CJJJ)	32cJJJ)
.	.	(8EEL	(8EL
.	.	8FF#J)	8F#J)
=74	=74	=74	=74
4T	4i	8..GGL	8..GL
.	.	32DDJkk	32DJkk
4T	4Vc	8..AAL	8..AL
.	.	32DDJkk	32DJkk
=75	=75	=75	=75
4T	4ib	(8..BB-L	(8..B-L
.	.	32GGJkk)	32GJkk)
4P	4Lt	(8E-L	(8e-L
.	.	8C#J)	8c#J)
=76	=76	=76	=76
4D	4V	4D	4d
*-	*-	*-	*-
!!!COM: Beethoven
!!!OTL: Sechs leichte variationen
!!!Variation: Variation 4 b
**function	**harm	**kern	**kern
*	*	*clefF4	*clefF4
*	*	*k[b-e-]	*k[b-e-]
*M2/4	*M2/4	*M2/4	*M2/4
*g:	*g:	*g:	*g:
4T	4ib	8BB-L	8B-L
.	.	8BB-J	8B-J
=77	=77	=77	=77
2T	2viiom7b	(8.AAL	(8.AL
.	.	16GGQ	16GQ
.	.	16AAQ	16AQ
.	.	32BB-LL	32B-LL
.	.	32CJJJ)	32cJJJ)
.	.	(8EEL	(8EL
.	.	8FF#J)	8F#J)
=78	=78	=78	=78
4T	4i	8..GGL	8..GL
.	.	32DDJkk	32DJkk
4T	4Vc	8..AAL	8..AL
.	.	32DDJkk	32DJkk
=79	=79	=79	=79
4T	4i	(8..BB-L	(8..B-L
.	.	32GGJkk)	32GJkk)
4T	4V/V	(8AAL	(8AL
.	.	8AAAJ)	8AAJ)
=80	=80	=80	=80
4D	4V	4DD	4D
*-	*-	*-	*-
!!!COM: Beethoven
!!!OTL: Sechs leichte variationen
!!!Variation: Variation 4 c
**function	**harm	**kern	**kern
*	*	*clefF4	*clefF4
*	*	*k[b-e-]	*k[b-e-]
*M2/4	*M2/4	*M2/4	*M2/4
*g:	*g:	*g:	*g:
4D	4ic	(8.BB-L	16r
.	.	.	(16DLK
.	.	.	(8dJ)
.	.	16DDJk)	.
=81	=81	=81	=81
4D	4V7	(8.AAL	16dLL)
.	.	.	(16DJ
.	.	.	[8cJ)
.	.	16DDJk)	.
4D	4ic	(8.GGL	16cLL]
.	.	.	(16DJ
.	.	.	[8B-J)
.	.	16DDJk)	.
=82	=82	=82	=82
4D	4V	(8.FF#L	16B-LL]
.	.	.	(16DJ
.	.	.	[8AJ)
.	.	16DDJk)	.
4D	4V7	(8.CL	16ALL]
.	.	.	(16DJ
.	.	.	[8e-J)
.	.	16DDJk)	.
=83	=83	=83	=83
4D	4ic	(8.BB-L	16e-LL]
.	.	.	(16DJ
.	.	.	[8dJ)
.	.	16DDJk)	.
4D	4V7	16AALL	16dLL]
.	.	16DD	(16DJ
.	.	16FF#	[8cJ)
.	.	16DDJJ	.
=84	=84	=84	=84
4T	4i	4GG	(16cLL]
.	.	.	16B-
.	.	.	16A
.	.	.	16GJJ)
*-	*-	*-	*-
!!!COM: Beethoven
!!!OTL: Sechs leichte variationen
!!!Variation: Variation 4 d
**function	**harm	**kern	**kern
*	*	*clefF4	*clefF4
*	*	*k[b-e-]	*k[b-e-]
*M2/4	*M2/4	*M2/4	*M2/4
*g:	*g:	*g:	*g:
4P	4ivb	8E-L	8e-L
.	.	8E-J	8e-J
=85	=85	=85	=85
2P	2viioD7b/iv	(8.DL	(8.dL
.	.	16CQ	16cQ
.	.	16DQ	16dQ
.	.	32E-LL	32e-LL
.	.	32FJJJ)	32fJJJ)
.	.	(8AAL	(8AL
.	.	8BBJ)	8BJ)
=86	=86	=86	=86
4P	4iv	(8..CL	(8..cL
.	.	32E-Jkk)	32e-Jkk)
8P	8viio	(8FF#L	(8F#L
8P	8i	8GGJ)	8GJ)
=87	=87	=87	=87
4P	4viioD7/V	(8..BB-L	(8..B-L
.	.	32CC#Jkk)	32C#Jkk)
4D	4V	8DDL	8DL
.	.	8DDJ	8DJ
=88	=88	=88	=88
4T	4i	4GGG	4GG
*-	*-	*-	*-
!!!COM: Beethoven
!!!OTL: Sechs leichte variationen
!!!Variation: Variation 5 a
**function	**harm	**kern	**kern
*	*	*clefG2	*clefG2
*	*	*k[f#]	*k[f#]
*M2/4	*M2/4	*M2/4	*M2/4
*G:	*G:	*G:	*G:
*	*	*	*^
4T	4I	16GLL	8bbL	(16ggLL
.	.	16g	.	16ff#
.	.	16G	8bbJ	16ee
.	.	16gJJ	.	16ddJJ)
=89	=89	=89	=89	=89
.	.	.	bbq	.
4.T	4.ii	16GLL	(16aaLL	4cc
.	.	16g	16gg#	.
.	.	16G	16aa	.
.	.	16gJJ	16cccJJ)	.
.	.	16GLL	(8eeL	16ccLL
.	.	16g	.	16a
8T	8V7	16G	8ff#J)	16dd
.	.	16gJJ	.	16ccJJ
=90	=90	=90	=90	=90
4T	4I	16GLL	(16ggLL	8bL
.	.	16g	16ff#	.
.	.	16B	16gg	8ddJ
.	.	16bJJ	16gg#JJ)	.
*	*	*clefF4	*	*
4T	4V	16F#LL	(16aaLL	8ddL
.	.	16f#	16gg#	.
.	.	16D	16aa	8ff#J
.	.	16dJJ	16aa#JJ)	.
=91	=91	=91	=91	=91
8T	8I	16GLL	4bb	(16ddLL
.	.	16g	.	16ff#
8T	8V7/IV	16GG	.	16gg
.	.	16GJJ	.	16ffJJ)
8P	8iib	16CLL	(8cccL	(16eeLL
.	.	16c	.	16aa
8P	8viiom7/V	16C#	8bbJ)	16ee
.	.	16c#JJ	.	16ggJJ)
=92	=92	=92	=92	=92
4D	4V	4D 4d	4aa	(16ff#LL
.	.	.	.	16ee
.	.	.	.	16dd
.	.	.	.	16ccJJ)
*	*	*	*v	*v
*-	*-	*-	*-
!!!COM: Beethoven
!!!OTL: Sechs leichte variationen
!!!Variation: Variation 5 b
**function	**harm	**kern	**kern
*	*	*clefF4	*clefG2
*	*	*k[f#]	*k[f#]
*M2/4	*M2/4	*M2/4	*M2/4
*G:	*G:	*G:	*G:
*	*	*	*^
4T	4I	16GGLL	8bL	(16gLL
.	.	16G	.	16f#
.	.	16GG	8bJ	16e
.	.	16GJJ	.	16dJJ)
=93	=93	=93	=93	=93
.	.	.	bq	.
4.T	4.iib	16GGLL	(16aLL	4c
.	.	16G	16g#	.
.	.	16GG	16a	.
.	.	16GJJ	16ccJJ)	.
.	.	16GGLL	8eL	(16cLL
.	.	16G	.	16A
8T	8V7	16GG	8f#J	16d
.	.	16GJJ	.	16cJJ)
=94	=94	=94	=94	=94
4T	4I	16GGLL	(16gLL	8BL
.	.	16G	16f#	.
.	.	16BB	16g	8dJ
.	.	16BJJ	16g#JJ)	.
4T	4V	16FF#LL	(16aLL	8dL
.	.	16F#	16g#	.
.	.	16DD	16a	8f#J
.	.	16DJJ	16a#JJ)	.
=95	=95	=95	=95	=95
8T	8I	16GGLL	(16bLL	8dL
.	.	16G	16a#	.
8T	8ii7/V	16EE	16b	8dJ
.	.	16EJJ	16gJJ)	.
8P	8Ic/V	16AALL	(16f#LL	8dL
.	.	16AJJ	16a	.
8P	8V/V	16AAALL	16e	8c#J
.	.	16AAJJ	16aJJ)	.
=96	=96	=96	=96	=96
4D	4V	4DD 4D	(16dLL	4r
.	.	.	16f#	.
.	.	.	16a	.
.	.	.	16cc#JJ)	.
*	*	*	*v	*v
*-	*-	*-	*-
!!!COM: Beethoven
!!!OTL: Sechs leichte variationen
!!!Variation: Variation 5 c
**function	**harm	**kern	**kern
*	*	*clefF4	*clefG2
*	*	*k[f#]	*k[f#]
*M2/4	*M2/4	*M2/4	*M2/4
*G:	*G:	*G:	*G:
*	*	*	*^
4D	4Ic	16DDLL	8ddL	(16bLL
.	.	16D	.	16a#
.	.	16DD	8ddJ	16b
.	.	16DJJ	.	16g#JJ)
=97	=97	=97	=97	=97
4D	4V7	16DDLL	(8ddL	(16aLL
.	.	16D	.	16g#
.	.	16DD	16ccJk)	16a
.	.	16DJJ	16r	16f#JJ)
8D	8Ic	16DDLL	8r	(16gLL
.	.	16D	.	16f#
8D	8viiom7/V	16DD	8b	16g
.	.	16DJJ	.	16c#JJ)
=98	=98	=98	=98	=98
4D	4Ic	16DDLL	8bL	16dLL
.	.	16D	.	[16f#
.	.	16DD	16aJk	16f#]
.	.	16DJJ	16r	16bJJ
4D	4V7	16DDLL	8eeL	(16ccLL
.	.	16D	.	16b
.	.	16DD	8eeJ	16cc
.	.	16DJJ	.	16a#JJ)
=99	=99	=99	=99	=99
4D	4Ic	16DDLL	(8eeL	(16bLL
.	.	16D	.	16a#
.	.	16DD	16ddJk)	16b
.	.	16DJJ	16r	16g#JJ)
4D	4V7	16DDLL	8r	(16aLL
.	.	16D	.	16d
.	.	16DD	8cc	16e
.	.	16DJJ	.	16f#JJ)
=100	=100	=100	=100	=100
4T	4I	16GGLL	4b	16gLL
.	.	16G	.	16dd
.	.	16GG	.	16ee
.	.	16GJJ	.	16ff#JJ
*	*	*	*v	*v
*-	*-	*-	*-
!!!COM: Beethoven
!!!OTL: Sechs leichte variationen
!!!Variation: Variation 5 d
**function	**harm	**kern	**kern
*	*	*clefF4	*clefG2
*	*	*k[f#]	*k[f#]
*M2/4	*M2/4	*M2/4	*M2/4
*G:	*G:	*G:	*G:
*	*	*	*^
4T	4I	16GGLL	8bbL	(16ggLL
.	.	16G	.	16ff#
.	.	16GG	8bbJ	16ee
.	.	16GJJ	.	16ddJJ)
=101	=101	=101	=101	=101
.	.	.	bbq	.
4.T	4.iib	16GGLL	(16aaLL	4cc
.	.	16G	16gg#	.
.	.	16GG	16aa	.
.	.	16GJJ	16cccJJ)	.
.	.	16GGLL	(8eeL	(16ccLL
.	.	16G	.	16a
8T	8V7	16GG	8ff#J)	16dd
.	.	16GJJ	.	16ccJJ)
=102	=102	=102	=102	=102
4T	4I	16GGLL	(16ggLL	8bL
.	.	16G	16ff#	.
.	.	16D	16gg	8ddJ
.	.	16BJJ	16gg#JJ)	.
4T	4V	16FF#LL	(16aaLL	8ddL
.	.	16F#	16gg#	.
.	.	16DD	16aa	8ff#J
.	.	16DJJ	16aa#JJ)	.
=103	=103	=103	=103	=103
8T	8I	16GGLL	4bb	(16ddLL
.	.	16GJJ	.	16ff#
8T	8V7/IV	16GGGLL	.	16gg
.	.	16GGJJ	.	16ffJJ)
8P	8iib	16CCLL	8cccL	(16eeLL
.	.	16C	.	16aa
8D	8V7	16DD	8aaJ	16ff#
.	.	16DJJ	.	16ccJJ)
=104	=104	=104	=104	=104
4T	4I	16GGGLL	4gg	4b
.	.	16GGJ	.	.
.	.	8GGGJ	.	.
*	*	*	*v	*v
*-	*-	*-	*-
!!!COM: Beethoven
!!!OTL: Sechs leichte variationen
!!!Variation: Variation 6 a
**function	**harm	**kern	**kern
*	*	*clefF4	*clefG2
*	*	*k[f#]	*k[f#]
*M2/4	*M2/4	*M2/4	*M2/4
*G:	*G:	*G:	*G:
4T	4I	8G' 8B' 8d' 8g'	32bbLLL
.	.	.	32aa
.	.	.	32gg
.	.	.	32ff#JJ
.	.	8r	32eeLL
.	.	.	32dd
.	.	.	32cc
.	.	.	32bJJJ
=105	=105	=105	=105
4T	4iib	8C' 8E' 8A' 8c'	32aLLL
.	.	.	32cc
.	.	.	32ee
.	.	.	32ddJJ
.	.	8r	32ccLL
.	.	.	32b
.	.	.	32a
.	.	.	32gJJJ
4T	4V7	8D' 8A' 8c'	32f#LLL
.	.	.	32e
.	.	.	32d
.	.	.	32c#JJ
.	.	8r	32dLL
.	.	.	32e
.	.	.	32f
.	.	.	32f#JJJ
=106	=106	=106	=106
4T	4I	8GG' 8BB' 8D' 8G'	32gLLL
.	.	.	32a
.	.	.	32b
.	.	.	32ccJJ
.	.	8r	32ddLL
.	.	.	32ee
.	.	.	32ff#
.	.	.	32ggJJJ
4T	4V	8DD' 8D'	32f#LLL
.	.	.	32a
.	.	.	32dd
.	.	.	32ff#JJ
.	.	8r	32aaLL
.	.	.	32ff#
.	.	.	32dd
.	.	.	32aJJJ
=107	=107	=107	=107
4T	4I	8GGG' 8GG'	32gLLL
.	.	.	32b
.	.	.	32dd
.	.	.	32ggJJ
.	.	8r	32bbLL
.	.	.	32gg
.	.	.	32dd
.	.	.	32bJJJ
8P	8iib	8CCL 8C	32r
.	.	.	32eeLLL
.	.	.	32aa
.	.	.	32cccJJJ
8P	8viiom7/V	8CC#J 8C#	32r
.	.	.	32eeLLL
.	.	.	32gg
.	.	.	32bbJJJ
=108	=108	=108	=108
4D	4V	8DD 8D	32ff#LLL 32aa
.	.	.	32dd
.	.	.	32cc#
.	.	.	32ddJJ
.	.	8r	32eeLL
.	.	.	32ff#
.	.	.	32gg
.	.	.	32aaJJJ
*-	*-	*-	*-
!!!COM: Beethoven
!!!OTL: Sechs leichte variationen
!!!Variation: Variation 6 b
**function	**harm	**kern	**kern
*	*	*clefF4	*clefG2
*	*	*k[f#]	*k[f#]
*M2/4	*M2/4	*M2/4	*M2/4
*G:	*G:	*G:	*G:
4T	4I	8G' 8B' 8d' 8g'	32bbLLL
.	.	.	32aa
.	.	.	32gg
.	.	.	32ff#JJ
.	.	8r	32eeLL
.	.	.	32dd
.	.	.	32cc
.	.	.	32bJJJ
=109	=109	=109	=109
4T	4iib	8C' 8E' 8A' 8c'	32aLLL
.	.	.	32cc
.	.	.	32ee
.	.	.	32ddJJ
.	.	8r	32ccLL
.	.	.	32b
.	.	.	32a
.	.	.	32gJJJ
4T	4V7	8D' 8A' 8c'	32f#LLL
.	.	.	32e
.	.	.	32d
.	.	.	32c#JJ
.	.	8r	32dLL
.	.	.	32e
.	.	.	32f
.	.	.	32f#JJJ
=110	=110	=110	=110
4T	4I	8GG' 8BB' 8D' 8G'	32gLLL
.	.	.	32a
.	.	.	32b
.	.	.	32ccJJ
.	.	8r	32ddLL
.	.	.	32ee
.	.	.	32ff#
.	.	.	32ggJJJ
4T	4V	8DD' 8D'	32f#LLL
.	.	.	32a
.	.	.	32dd
.	.	.	32ff#JJ
.	.	8r	32aaLL
.	.	.	32ff#
.	.	.	32dd
.	.	.	32aJJJ
=111	=111	=111	=111
4T	4I	8GGG' 8GG'	32gLLL
.	.	.	32b
.	.	.	32dd
.	.	.	32ggJJ
.	.	8r	32bbLL
.	.	.	32gg
.	.	.	32dd
.	.	.	32bJJJ
8P	8Ic/V	8AAAL 8AA	32r
.	.	.	32aLLL
.	.	.	32dd
.	.	.	32ff#JJJ
8P	8V7/V	8AAAJ 8AA	32r
.	.	.	32gLLL
.	.	.	32cc#
.	.	.	32eeJJJ
=112	=112	=112	=112
4D	4V	8DD 8D	32r
.	.	.	32ddLLL
.	.	.	32a
.	.	.	32f#JJJ
.	.	32r	8d
.	.	32DLLL	.
.	.	32A	.
.	.	32cJJJ	.
*-	*-	*-	*-
!!!COM: Beethoven
!!!OTL: Sechs leichte variationen
!!!Variation: Variation 6 c
**function	**harm	**kern	**kern
*	*	*clefF4	*clefG2
*	*	*k[f#]	*k[f#]
*M2/4	*M2/4	*M2/4	*M2/4
*G:	*G:	*G:	*G:
4D	4Ib	(8.BL	32r
.	.	.	(32ddLLL
.	.	.	32cc#
.	.	.	32ddJJJ)
.	.	.	(16dddLL
.	.	16DJk)	16ddJJ)
=113	=113	=113	=113
4D	4V7	(8.AL	32r
.	.	.	(32ccLLL
.	.	.	32b
.	.	.	32ccJJJ)
.	.	.	(16cccLL
.	.	16DJk)	16ccJJ)
8D	8Ic	(16GLL	32r
.	.	.	(32bLLL
.	.	16D	32a#
.	.	.	32bJJJ)
8D	8viioD7c/ii	16F 16G#	(16bbLL
.	.	[16DJJ)	16bJJ)
=114	=114	=114	=114
4D	4V	8D] 8F# 8A	(32g#LLL
.	.	.	32a
.	.	.	32b-
.	.	.	32bJJ
.	.	8r	32ccLL
.	.	.	32cc#
.	.	.	32dd
.	.	.	32dd#JJJ)
4D	4V7	(8.cL	32r
.	.	.	(32eeLLL
.	.	.	32dd#
.	.	.	32eeJJJ)
.	.	.	(16eeeLL
.	.	16DJk)	16eeJJ)
=115	=115	=115	=115
4D	4Ic	(8.BL	32r
.	.	.	(32ddLLL
.	.	.	32cc#
.	.	.	32ddJJJ)
.	.	.	(16dddLL
.	.	16DJk)	16ddJJ)
4D	4V7	(16ALL	32r
.	.	.	(32ccLLL
.	.	16D	32b
.	.	.	32ccJJJ)
.	.	16F# 16A	(16cccLL
.	.	16DJJ)	16ccJJ)
=116	=116	=116	=116
4T	4I	8G 8B	32r
.	.	.	32bLLL
.	.	.	32cc
.	.	.	32ddJJ
.	.	8r	32eeLL
.	.	.	32ff#
.	.	.	32gg
.	.	.	32aaJJJ
*-	*-	*-	*-
!!!!SEGMENT: 
!!!COM: Beethoven
!!!OTL: Sechs leichte variationen
!!!Variation: Variation 6 d
**function	**harm	**kern	**kern
*	*	*clefF4	*clefG2
*	*	*k[f#]	*k[f#]
*M2/4	*M2/4	*M2/4	*M2/4
*G:	*G:	*G:	*G:
4T	4I	8G 8B 8d 8g	32bbLLL
.	.	.	32aa
.	.	.	32gg
.	.	.	32ff#JJ
.	.	8r	32eeLL
.	.	.	32dd
.	.	.	32cc
.	.	.	32bJJJ
=117	=117	=117	=117
4T	4iib	8C 8E 8A 8c	32aLLL
.	.	.	32cc
.	.	.	32ee
.	.	.	32ddJJ
.	.	8r	32ccLL
.	.	.	32b
.	.	.	32a
.	.	.	32gJJJ
4T	4V7	8D 8A 8c	32f#LLL
.	.	.	32e
.	.	.	32d
.	.	.	32c#JJ
.	.	8r	32dLL
.	.	.	32e
.	.	.	32f
.	.	.	32f#JJJ
=118	=118	=118	=118
4T	4I	8GG 8BB 8D 8G	32gLLL
.	.	.	32a
.	.	.	32b
.	.	.	32ccJJ
.	.	8r	32ddLL
.	.	.	32ee
.	.	.	32ff#
.	.	.	32ggJJJ
4T	4V	8DD 8D	32f#LLL
.	.	.	32a
.	.	.	32dd
.	.	.	32ff#JJ
.	.	8r	32aaLL
.	.	.	32ff#
.	.	.	32dd
.	.	.	32aJJJ
=119	=119	=119	=119
4T	4I	8GGG 8GG	32gLLL
.	.	.	32b
.	.	.	32dd
.	.	.	32ggJJ
.	.	8r	32bbLL
.	.	.	32gg
.	.	.	32dd
.	.	.	32bJJJ
8P	8iib	8CCL 8C	32r
.	.	.	32eeLLL
.	.	.	32aa
.	.	.	32cccJJJ
8D	8V7	8DDJ 8D	32r
.	.	.	32ccLLL
.	.	.	32ff#
.	.	.	32aaJJJ
=120	=120	=120	=120
4T	4I	8GGG 8GG	16bLL 16gg
.	.	.	32gL
.	.	.	32f#JJ
.	.	8r	32gLL
.	.	.	32a
.	.	.	32b
.	.	.	32ccJJJ
*-	*-	*-	*-
!!!COM: Beethoven
!!!OTL: Sechs leichte variationen
!!!Variation: Variation 6 c2
**function	**harm	**kern	**kern
*	*	*clefF4	*clefG2
*	*	*k[f#]	*k[f#]
*M2/4	*M2/4	*M2/4	*M2/4
*G:	*G:	*G:	*G:
4D	4Ic	(8.BL	32r
.	.	.	(32ddLLL
.	.	.	32cc#
.	.	.	32ddJJJ)
.	.	.	(16dddLL
.	.	16DJk)	16ddJJ)
=121	=121	=121	=121
4D	4V7	(8.AL	32r
.	.	.	(32ccLLL
.	.	.	32b
.	.	.	32ccJJJ)
.	.	.	(16cccLL
.	.	16DJk)	16ccJJ)
8D	8Ic	(16GLL	32r
.	.	.	(32bLLL
.	.	16D	32a#
.	.	.	32bJJJ)
8D	8viioD7c/V	16F 16G#	(16bbLL
.	.	[16DJJ)	16bJJ)
=122	=122	=122	=122
4D	4V	8D] 8F# 8A	(32g#LLL
.	.	.	32a
.	.	.	32b-
.	.	.	32bJJ
.	.	8r	32ccLL
.	.	.	32cc#
.	.	.	32dd
.	.	.	32dd#JJJ)
4D	4V7	(8.cL	32r
.	.	.	(32eeLLL
.	.	.	32dd#
.	.	.	32eeJJJ)
.	.	.	(16eeeLL
.	.	16DJk)	16eeJJ)
=123	=123	=123	=123
4D	4Ic	(8.BL	32r
.	.	.	(32ddLLL
.	.	.	32cc#
.	.	.	32ddJJJ)
.	.	.	(16dddLL
.	.	16DJk)	16ddJJ)
4D	4V7	(16ALL	32r
.	.	.	(32ccLLL
.	.	16D	32b
.	.	.	32ccJJJ)
.	.	16F# 16A	(16cccLL
.	.	16DJJ)	16ccJJ)
=124	=124	=124	=124
4T	4I	8G 8B	32r
.	.	.	32bLLL
.	.	.	32cc
.	.	.	32ddJJ
.	.	8r	32eeLL
.	.	.	32ff#
.	.	.	32gg
.	.	.	32aaJJJ
*-	*-	*-	*-
!!!COM: Beethoven
!!!OTL: Sechs leichte variationen
!!!Variation: Variation 6 d2
**function	**harm	**kern	**kern
*	*	*clefF4	*clefG2
*	*	*k[f#]	*k[f#]
*M2/4	*M2/4	*M2/4	*M2/4
*G:	*G:	*G:	*G:
4T	4I	8G 8B 8d 8g	32bbLLL
.	.	.	32aa
.	.	.	32gg
.	.	.	32ff#JJ
.	.	8r	32eeLL
.	.	.	32dd
.	.	.	32cc
.	.	.	32bJJJ
=125	=125	=125	=125
4T	4iib	8C 8E 8A 8c	32aLLL
.	.	.	32cc
.	.	.	32ee
.	.	.	32ddJJ
.	.	8r	32ccLL
.	.	.	32b
.	.	.	32a
.	.	.	32gJJJ
4T	4V7	8D 8A 8c	32f#LLL
.	.	.	32e
.	.	.	32d
.	.	.	32c#JJ
.	.	8r	32dLL
.	.	.	32e
.	.	.	32f
.	.	.	32f#JJJ
=126	=126	=126	=126
4T	4I	8GG 8BB 8D 8G	32gLLL
.	.	.	32a
.	.	.	32b
.	.	.	32ccJJ
.	.	8r	32ddLL
.	.	.	32ee
.	.	.	32ff#
.	.	.	32ggJJJ
4T	4V	8DD 8D	32f#LLL
.	.	.	32a
.	.	.	32dd
.	.	.	32ff#JJ
.	.	8r	32aaLL
.	.	.	32ff#
.	.	.	32dd
.	.	.	32aJJJ
=127	=127	=127	=127
4T	4I	8GGG 8GG	32gLLL
.	.	.	32b
.	.	.	32dd
.	.	.	32ggJJ
.	.	8r	32bbLL
.	.	.	32gg
.	.	.	32dd
.	.	.	32bJJJ
8P	8iib	8CCL 8C	32r
.	.	.	32eeLLL
.	.	.	32aa
.	.	.	32cccJJJ
8D	8V7	[8DDJ [8D	32r
.	.	.	32ccLLL
.	.	.	32ff#
.	.	.	[32aaJJJ
=128	=128	=128	=128
4D	4V7	4DD;] 4D;]	4aa;]
*-	*- 	*-	*-
!!!COM: Beethoven
!!!OTL: Sechs leichte variationen
!!!Variation: Variation 6 coda
**function	**harm	**kern	**kern
*	*	*clefG2	*clefG2
*	*	*k[f#]	*k[f#]
*M2/4	*M2/4	*M2/4	*M2/4
*G:	*G:	*G:	*G:
4T	4I	(4g	(8dd'L 8bb'
.	.	.	8dd#'J) 8bb'
=129	=129	=129	=129
4T	4iib	4c)	(8eeL 8aa
.	.	.	16cccJk)
.	.	.	16r
*	*	*clefF4	*
4T	4V7	(4D	8cL 8f#
.	.	.	8cJ 8d
=130	=130	=130	=130
*	*	*	*^
2T	2I	4GG)	4g	(8BL
.	.	.	.	16GJk)
.	.	.	.	16r
*	*	*	*v	*v
*	*	*clefG2	*
.	.	(4g	(16ddLL
.	.	.	16bb
.	.	.	16dd#
.	.	.	16bbJJ)
=131	=131	=131	=131
4T	4iib	4c)	(16eeLL
.	.	.	16aa
.	.	.	16cccJJ)
.	.	.	16r
*	*	*clefF4	*
4T	4V7	(4D	(16cLL
.	.	.	16f#
.	.	.	16c
.	.	.	16dJJ)
=132	=132	=132	=132
2T	2I	4GG)	4B 4g
*	*	*clefG2	*
.	.	8gL	24r
.	.	.	(24ddLL
.	.	.	24bbJJ)
.	.	8gJ	24r
.	.	.	(24dd#LL
.	.	.	24bbJJ)
=133	=133	=133	=133
4T	4iib	4c	24r
.	.	.	(24eeLL
.	.	.	24aaJJ)
.	.	.	8ccc'
*	*	*clefF4	*
4T	4V7	8DL	24r
.	.	.	(24cLL
.	.	.	24f#JJ)
.	.	8DJ	24r
.	.	.	(24cLL
.	.	.	24dJJ)
=134	=134	=134	=134
2T	2I	4GG	24r
.	.	.	(24BLL
.	.	.	24gJJ)
.	.	.	8G
*	*	*clefG2	*
.	.	8gL	(32ddLLL
.	.	.	32bb
.	.	.	32dd
.	.	.	32bbJJJ)
.	.	8gJ	(32dd#LLL
.	.	.	32bb
.	.	.	32dd#
.	.	.	32bbJJJ)
=135	=135	=135	=135
4P	4iib	4c	(32eeLLL
.	.	.	32aa
.	.	.	32ee
.	.	.	32aaJJJ)
.	.	.	8ccc
*	*	*clefF4	*
4D	4V7	8DL	(32cLLL
.	.	.	32f#
.	.	.	32c
.	.	.	32f#JJJ)
.	.	8DJ	(32cLLL
.	.	.	32d
.	.	.	32c
.	.	.	32dJJJ)
=136	=136	=136	=136
4T	4I	4GG	4B 4g
*	*	*^	*
4T	4V7	(8AL	4D	24r
.	.	.	.	(24cLL
.	.	.	.	24f#JJ)
.	.	8F#J	.	24r
.	.	.	.	(24cLL
.	.	.	.	24dJJ)
=137	=137	=137	=137	=137
4T	4I	4G)	4GG	24r
.	.	.	.	(24BLL
.	.	.	.	24gJJ)
.	.	.	.	8b
4T	4V7	(8AL	4D	24r
.	.	.	.	(24cLL
.	.	.	.	24f#JJ)
.	.	8F#J	.	24r
.	.	.	.	(24cLL
.	.	.	.	24dJJ)
=138	=138	=138	=138	=138
4T	4I	4G)	4GG	24r
.	.	.	.	(24BLL
.	.	.	.	24gJJ)
.	.	.	.	8dd
4T	4V7	(8AL	4D	24r
.	.	.	.	(24cLL
.	.	.	.	24f#JJ)
.	.	8F#J	.	24r
.	.	.	.	(24cLL
.	.	.	.	24dJJ)
=139	=139	=139	=139	=139
4T	4I	4G)	4GG	24r
.	.	.	.	(24BLL
.	.	.	.	24gJJ)
.	.	.	.	8b
4T	4V7	(8AL	4D	24r
.	.	.	.	(24cLL
.	.	.	.	24f#JJ)
.	.	8F#J)	.	24r
.	.	.	.	(24cLL
.	.	.	.	24dJJ)
*	*	*v	*v	*
=140	=140	=140	=140
2T	2I	8GGL 8G	32r
.	.	.	(32BLLL
.	.	.	32d
.	.	.	32gJJJ)
.	.	8DJ	32r
.	.	.	(32cLLL
.	.	.	32d
.	.	.	32f#JJJ)
.	.	8GGL	32r
.	.	.	(32BLLL
.	.	.	32d
.	.	.	32gJJJ)
.	.	8DDJ	32r
.	.	.	(32cLLL
.	.	.	32d
.	.	.	32f#JJJ)
=141	=141	=141	=141
2T	2I	8GGG	8B 8d 8g
.	.	8r	8r
.	.	8GG 8G	8b 8dd 8gg 8bb
.	.	8r	8r
=142	=142	=142	=142
2T	2I	8GGG 8GG	8g 8b 8dd 8gg
.	.	8r	8r
.	.	4r	4r
=	=	==	==
*-	*-	*-	*-
